packages/foundations/assets/icons/functional/images/transportation/bus_14_inverted.svg

<svg width="14" height="14" viewBox="0 0 14 14" fill="none" xmlns="http://www.w3.org/2000/svg">
<g clip-path="url(#clip0_2214_6692)">
<path fill-rule="evenodd" clip-rule="evenodd" d="M9.40532 1.4525C10.0641 1.4525 10.4072 1.51875 10.7644 1.70981C11.0963 1.88728 11.3603 2.15127 11.5377 2.48311C11.6863 2.76093 11.7594 3.03015 11.7846 3.44595L12.46 3.4475V6.2475L11.795 6.2468V10.2501C11.795 10.5777 11.7628 10.7854 11.6732 10.9848C11.5836 11.1841 11.3827 11.4421 11.2 11.5311V12.5475H9.45004V11.7425H4.54934L4.55004 12.5475H2.80004L2.79897 11.533C2.61763 11.4185 2.47095 11.2609 2.36886 11.07C2.26234 10.8708 2.2168 10.6791 2.20709 10.3835C2.20061 10.1864 2.19992 8.80754 2.20504 6.2468L1.54004 6.2475V3.4475L2.21551 3.44595C2.24067 3.03015 2.31377 2.76093 2.46235 2.48311C2.63982 2.15127 2.90381 1.88728 3.23565 1.70981C3.56314 1.53467 3.87869 1.46441 4.43645 1.45391L9.40532 1.4525ZM4.09504 9.2225C3.70844 9.2225 3.39504 9.5359 3.39504 9.9225C3.39504 10.3091 3.70844 10.6225 4.09504 10.6225C4.48164 10.6225 4.79504 10.3091 4.79504 9.9225C4.79504 9.5359 4.48164 9.2225 4.09504 9.2225ZM9.83052 9.2225C9.44392 9.2225 9.13052 9.5359 9.13052 9.9225C9.13052 10.3091 9.44392 10.6225 9.83052 10.6225C10.2171 10.6225 10.5305 10.3091 10.5305 9.9225C10.5305 9.5359 10.2171 9.2225 9.83052 9.2225ZM10.605 3.9718H3.39504L3.39574 8.08984C4.59717 8.27023 5.79861 8.36043 7.00004 8.36043C8.20171 8.36043 9.40337 8.2702 10.605 8.08973V3.9718ZM9.10004 2.2225H4.90004V3.2725H9.10004V2.2225Z" fill="#1A1C1F"/>
</g>
<defs>
<clipPath id="clip0_2214_6692">
<rect width="14" height="14" fill="white"/>
</clipPath>
</defs>
</svg>

<svg xmlns="http://www.w3.org/2000/svg" width="14" height="14" fill="none"><g clip-path="url(#a)"><path fill="#1A1C1F" fill-rule="evenodd" d="M9.405 1.453c.66 0 1.002.066 1.36.257.331.177.595.441.773.773.148.278.221.547.247.963l.675.001v2.8h-.665v4.003c0 .328-.032.535-.122.735s-.29.457-.473.546v1.016H9.45v-.805h-4.9v.805H2.8l-.001-1.014a1.23 1.23 0 0 1-.43-.463c-.107-.2-.152-.39-.162-.687q-.01-.295-.002-4.136H1.54v-2.8l.676-.001c.025-.416.098-.685.246-.963.178-.332.442-.596.774-.773.327-.175.643-.246 1.2-.256zm-5.31 7.77a.7.7 0 1 0 0 1.4.7.7 0 0 0 0-1.4m5.736 0a.7.7 0 1 0 0 1.4.7.7 0 0 0 0-1.4m.774-5.251h-7.21V8.09a24.2 24.2 0 0 0 7.21 0zM9.1 2.222H4.9v1.05h4.2z" clip-rule="evenodd"/></g><defs><clipPath id="a"><path fill="#fff" d="M0 0h14v14H0z"/></clipPath></defs></svg>
